openframe-frontend-core/src/components/icons-v2/brand-logos/powershell-logo.svg

<svg width="24" height="24" viewBox="0 0 24 24" fill="none" xmlns="http://www.w3.org/2000/svg">
<path fill-rule="evenodd" clip-rule="evenodd" d="M10.274 19.7083C7.92927 19.7076 5.58449 19.7184 3.2399 19.7031C2.05095 19.6953 1.83476 19.4166 2.1024 18.2611C3.00975 14.3424 3.94634 10.4302 4.83353 6.50703C5.07141 5.45481 5.58459 4.98975 6.71913 5.00017C11.4081 5.0434 16.0978 5.01403 20.7871 5.0188C21.9631 5.01991 22.1605 5.26986 21.8967 6.45499C21.0394 10.3026 20.1769 14.149 19.2993 17.992C18.9708 19.4302 18.5925 19.7046 17.0695 19.708C14.8044 19.7127 12.5391 19.7092 10.274 19.7083Z" fill="#888888"/>
<path fill-rule="evenodd" clip-rule="evenodd" d="M12.2688 12.0286C12.1116 11.8454 11.9391 11.6344 11.7563 11.4328C10.7198 10.2889 9.69258 9.13644 8.6377 8.00961C8.155 7.49392 8.00116 6.99313 8.58085 6.48412C9.15373 5.98101 9.71662 6.02554 10.2421 6.60439C11.7056 8.21592 13.1674 9.82927 14.6552 11.4186C15.2106 12.0123 15.0813 12.4159 14.4695 12.8557C12.1212 14.5446 9.78621 16.2517 7.45375 17.9622C6.92947 18.3468 6.42964 18.4431 6.00613 17.875C5.5389 17.2485 5.97118 16.8757 6.45583 16.5252C8.18913 15.2706 9.91906 14.0115 11.6416 12.7425C11.8815 12.5657 12.2259 12.4626 12.2688 12.0286Z" fill="#212121"/>
<path fill-rule="evenodd" clip-rule="evenodd" d="M13.0115 18.0893C12.3802 18.0893 11.7481 18.1109 11.1182 18.0824C10.6157 18.0599 10.3134 17.7809 10.3197 17.255C10.3258 16.7577 10.5781 16.3839 11.08 16.3704C12.4597 16.3337 13.8414 16.3415 15.2215 16.3683C15.6601 16.3769 15.984 16.6608 15.9813 17.115C15.9781 17.6358 15.7023 18.0395 15.1408 18.0731C14.4333 18.1157 13.7215 18.0837 13.0116 18.0837L13.0115 18.0893Z" fill="#212121"/>
</svg>

<svg xmlns="http://www.w3.org/2000/svg" width="24" height="24" fill="none" viewBox="0 0 24 24">
  <path fill="#2671BE" fill-rule="evenodd" d="M10.274 19.708c-2.345 0-4.69.01-7.034-.005-1.19-.008-1.405-.287-1.138-1.442.908-3.919 1.844-7.83 2.732-11.754C5.07 5.455 5.584 4.99 6.719 5c4.69.043 9.379.014 14.068.019 1.176 0 1.374.25 1.11 1.436-.857 3.848-1.72 7.694-2.598 11.537-.328 1.438-.707 1.713-2.23 1.716-2.265.005-4.53.001-6.795 0Z" clip-rule="evenodd"/>
  <path fill="#FDFDFE" fill-rule="evenodd" d="M12.269 12.029c-.157-.184-.33-.395-.513-.596-1.036-1.144-2.063-2.297-3.118-3.423C8.155 7.494 8 6.993 8.58 6.484c.573-.503 1.136-.458 1.661.12 1.464 1.612 2.925 3.225 4.413 4.815.556.593.426.997-.185 1.437a941.95 941.95 0 0 0-7.016 5.106c-.524.385-1.024.481-1.448-.087-.467-.627-.035-1 .45-1.35a758.876 758.876 0 0 0 5.186-3.782c.24-.177.584-.28.627-.714Z" clip-rule="evenodd"/>
  <path fill="#FCFDFD" fill-rule="evenodd" d="M13.011 18.09c-.631 0-1.263.02-1.893-.008-.502-.022-.805-.301-.799-.827.006-.497.259-.871.76-.885a89.907 89.907 0 0 1 4.142-.002c.439.009.763.293.76.747-.003.52-.279.925-.84.958-.708.043-1.42.01-2.13.01v.006Z" clip-rule="evenodd"/>
</svg>
